src/32x32/places/folder-gruvbox-mix-aqua-kde.svg

<?xml version="1.0" encoding="UTF-8"?>
<svg width="32" height="32" version="1" xmlns="http://www.w3.org/2000/svg">
 <rect x="2" y="11" width="28" height="18" rx="1.4" ry="1.4" opacity=".2"/>
 <path d="m2 22.6c0 0.776 0.6244 1.4 1.4 1.4h25.2c0.776 0 1.4-0.624 1.4-1.4v-15.2c0-0.7756-0.624-1.4-1.4-1.4h-12.6c-2.1 0-2.8-3-4.9-3h-7.7c-0.7756 0-1.4 0.6244-1.4 1.4" fill="#477a5b"/>
 <rect x="2" y="9" width="28" height="18" rx="1.4" ry="1.4" opacity=".2"/>
 <rect x="4" y="8" width="24" height="11" rx="1.4" ry="1.4" fill="#DCE0BB"/>
 <rect x="2" y="10" width="28" height="18" rx="1.4" ry="1.4" fill="#8bba7f"/>
 <path d="m3.4004 3c-0.7756 0-1.4004 0.6248-1.4004 1.4004v1c0-0.7756 0.6248-1.4004 1.4004-1.4004h7.6996c2.1 0 2.8 3 4.9 3h12.6c0.775 0 1.4 0.6248 1.4 1.4004v-1c0-0.7756-0.625-1.4004-1.4-1.4004h-12.6c-2.1 0-2.8-3-4.9-3z" fill="#DCE0BB" opacity=".1"/>
 <path d="m17 12-2.006 0.399v8.513l1.995-0.312v-3.6l2.805 4 2.189-1-2.989-3.4 3.011-3.6-2.211-1-2.805 4.2v-4.2z" fill="#39433D"/>
 <path d="m12.276 15.201c-0.025 3e-3 -0.052 9e-3 -0.071 0.028l-0.853 0.847c-0.036 0.036-0.04 0.09-0.014 0.133l0.908 1.488c-0.213 0.347-0.379 0.724-0.49 1.125l-1.674 0.346c-0.051 0.01-0.0877 0.059-0.0877 0.111v1.198c0 0.05 0.0387 0.093 0.0877 0.105l1.623 0.391c0.102 0.451 0.275 0.876 0.504 1.263l-0.945 1.43c-0.029 0.044-0.023 0.102 0.014 0.139l0.853 0.847c0.036 0.036 0.092 0.04 0.135 0.014l1.476-0.891c0.365 0.218 0.763 0.385 1.186 0.491l0.346 1.646c0.01 0.051 0.053 0.088 0.105 0.088h1.207c0.051 0 0.094-0.033 0.106-0.082l0.41-1.658c0.426-0.111 0.823-0.289 1.189-0.514l1.482 0.965c0.044 0.028 0.102 0.023 0.139-0.014l0.85-0.845c0.036-0.036 0.044-0.092 0.017-0.135l-0.58-0.947-0.189 0.058c-0.028 9e-3 -0.058-3e-3 -0.075-0.027 0 0-0.179-0.244-0.322-0.438-0.059-0.09-0.551-0.687-0.89-1.121a3 3 0 0 1-2.729 1.758 3 3 0 0 1-3-3 3 3 0 0 1 1.401-2.535v-1.59c-0.223 0.083-0.37 0.184-0.575 0.301l-1.476-0.959c-0.022-0.015-0.044-0.018-0.068-0.016z" fill="#39433D"/>
</svg>

<svg xmlns="http://www.w3.org/2000/svg" width="32" height="32" version="1">
 <rect style="opacity:0.2" width="28" height="18" x="2" y="11" rx="1.4" ry="1.4"/>
 <path style="fill:#477a5b" d="M 2,22.6 C 2,23.376 2.6244,24 3.4,24 H 28.6 C 29.376,24 30,23.376 30,22.6 V 7.4 C 30,6.6244 29.376,6 28.6,6 H 16 C 13.9,6 13.2,3 11.1,3 H 3.4 C 2.6244,3 2,3.6244 2,4.4"/>
 <rect style="opacity:0.2" width="28" height="18" x="2" y="9" rx="1.4" ry="1.4"/>
 <rect style="fill:#DCE0BB" width="24" height="11" x="4" y="8" rx="1.4" ry="1.4"/>
 <rect style="fill:#8bba7f" width="28" height="18" x="2" y="10" rx="1.4" ry="1.4"/>
 <path style="opacity:0.1;fill:#DCE0BB" d="M 3.4004,3 C 2.6248,3 2,3.6248 2,4.4004 V 5.4004 C 2,4.6248 2.6248,4 3.4004,4 H 11.1 C 13.2,4 13.9,7 16,7 H 28.6 C 29.375,7 30,7.6248 30,8.4004 V 7.4004 C 30,6.6248 29.375,6 28.6,6 H 16 C 13.9,6 13.2,3 11.1,3 Z"/>
 <path style="fill:#39433D" d="M 17,12 14.994,12.399 V 20.912 L 16.989,20.6 V 17 L 19.794,21 21.983,20 18.994,16.6 22.005,13 19.794,12 16.989,16.2 V 12 Z"/>
 <path style="fill:#39433D" d="M 12.276,15.201 C 12.251,15.204 12.224,15.21 12.205,15.229 L 11.352,16.076 C 11.316,16.112 11.312,16.166 11.338,16.209 L 12.246,17.697 C 12.033,18.044 11.867,18.421 11.756,18.822 L 10.082,19.168 C 10.031,19.178 9.9943,19.227 9.9943,19.279 V 20.477 C 9.9943,20.527 10.033,20.57 10.082,20.582 L 11.705,20.973 C 11.807,21.424 11.98,21.849 12.209,22.236 L 11.264,23.666 C 11.235,23.71 11.241,23.768 11.278,23.805 L 12.131,24.652 C 12.167,24.688 12.223,24.692 12.266,24.666 L 13.742,23.775 C 14.107,23.993 14.505,24.16 14.928,24.266 L 15.274,25.912 C 15.284,25.963 15.327,26 15.379,26 H 16.586 C 16.637,26 16.68,25.967 16.692,25.918 L 17.102,24.26 C 17.528,24.149 17.925,23.971 18.291,23.746 L 19.773,24.711 C 19.817,24.739 19.875,24.734 19.912,24.697 L 20.762,23.852 C 20.798,23.816 20.806,23.76 20.779,23.717 L 20.199,22.77 20.01,22.828 C 19.982,22.837 19.952,22.825 19.935,22.801 19.935,22.801 19.756,22.557 19.613,22.363 19.554,22.273 19.062,21.676 18.723,21.242 A 3,3 0 0 1 15.994,23 3,3 0 0 1 12.994,20 3,3 0 0 1 14.395,17.465 V 15.875 C 14.172,15.958 14.025,16.059 13.82,16.176 L 12.344,15.217 C 12.322,15.202 12.3,15.199 12.276,15.201 Z"/>
</svg>
